src/icon/entity/APC-bonus/icon_APC-bonus_s_black.svg

<svg width="18px" height="18px" viewBox="0 0 18 18" version="1.1" xmlns="http://www.w3.org/2000/svg"><g stroke="none" stroke-width="1" fill="none" fill-rule="evenodd"><rect x="0" y="0" width="18" height="18"/><path d="M9.08133174,15.3455186 C8.47713384,14.597011 8.11610092,13.6490543 8.11610092,12.6180924 C8.11610092,10.1978188 10.1046137,8.23618482 12.5580505,8.23618482 C15.0114873,8.23618482 17,10.1978188 17,12.6180924 C17,15.0376357 15.0114873,17 12.5580505,17 C11.7764859,17 11.0421018,16.8008595 10.4041517,16.4512371 C9.62283537,16.7628679 8.77976704,16.948117 7.90436799,16.986124 C3.72523379,17.1657822 0.190922607,13.9574955 0.00732202598,9.82316568 C-0.174797905,5.68737524 3.06264299,2.18623107 7.24177718,2.00730318 C7.35282592,2.00219095 7.46387466,2 7.5749234,2 C9.73815282,2 11.7681238,2.90997614 13.1991718,4.48235065 C13.4723517,4.78251132 13.4471807,5.24407225 13.1436475,5.51355957 C12.8393739,5.78304689 12.3707483,5.75821608 12.0983087,5.45878572 C10.8863968,4.12741614 9.14589288,3.38760407 7.30544512,3.46647841 C3.9451103,3.61108136 1.33916656,6.42791762 1.48723155,9.75889771 C1.63455621,13.0898778 4.47888457,15.6715517 7.83921939,15.5269487 C8.26441302,15.5084151 8.68036154,15.4465607 9.08133174,15.3455186 Z M9.59675076,12.6180924 C9.59675076,14.2313647 10.9226727,15.5393641 12.5580505,15.5393641 C14.1934282,15.5393641 15.5193502,14.2313647 15.5193502,12.6180924 C15.5193502,11.0048201 14.1934282,9.69682068 12.5580505,9.69682068 C10.9226727,9.69682068 9.59675076,11.0048201 9.59675076,12.6180924 Z" fill="#0B1F35" fill-rule="nonzero"/></g></svg>

<svg width="18" height="18" viewBox="0 0 18 18" xmlns="http://www.w3.org/2000/svg"><g fill="none" fill-rule="evenodd"><path d="M0 0h18v18H0z"/><path d="M9.081 15.346a4.327 4.327 0 0 1-.965-2.728c0-2.42 1.989-4.382 4.442-4.382 2.453 0 4.442 1.962 4.442 4.382S15.011 17 12.558 17c-.782 0-1.516-.2-2.154-.549a7.636 7.636 0 0 1-2.5.535c-4.179.18-7.713-3.029-7.897-7.163-.182-4.136 3.056-7.637 7.235-7.816a7.59 7.59 0 0 1 5.957 2.475c.273.3.248.762-.055 1.032a.748.748 0 0 1-1.046-.055 6.107 6.107 0 0 0-4.793-1.993c-3.36.145-5.966 2.962-5.818 6.293.148 3.33 2.992 5.913 6.352 5.768.425-.019.841-.08 1.242-.181zm.516-2.728c0 1.613 1.326 2.921 2.961 2.921 1.635 0 2.961-1.308 2.961-2.92 0-1.614-1.326-2.922-2.96-2.922-1.636 0-2.962 1.308-2.962 2.921z" fill="#0B1F35" fill-rule="nonzero"/></g></svg>
